X: 243
M: 6/8
L: 1/8
K: G
|: d |\
g2g gab | d2d d2B | g2g gab | e2e e2f |\
gfe gab | d2B g2a | bag fed | B2B TB2 :|

